packages/icons/src/search-list.svg

<svg fill="none" viewBox="0 0 19 17" xmlns="http://www.w3.org/2000/svg"><path d="m9.88 12.219c1.145 0 2.351-.493 3.1-1.24l2.478 2.48-2.479-2.48c.724-.711 1.24-2.05 1.24-3.099a4.339 4.339 0 1 0 -4.339 4.34z" stroke="#383946" stroke-linecap="round" stroke-linejoin="round"/><path d="m7.778 15.583h-7.556c-.122 0-.222-.186-.222-.416s.1-.417.222-.417h7.556c.122 0 .222.187.222.417s-.1.416-.222.416zm-4-4.167h-3.556c-.122 0-.222-.187-.222-.417s.1-.417.222-.417h3.556c.122 0 .222.187.222.417s-.1.417-.222.417zm-.992-4.583h-2.572c-.118 0-.214-.186-.214-.416s.096-.417.214-.417h2.572c.118 0 .214.187.214.417s-.096.416-.214.416z" fill="#383946"/></svg>

<svg fill="none" xmlns="http://www.w3.org/2000/svg" viewBox="0 0 19 17"><path d="M9.88 12.219c1.145 0 2.351-.493 3.1-1.24l2.478 2.48-2.479-2.48c.724-.711 1.24-2.05 1.24-3.099A4.339 4.339 0 109.88 12.22z" stroke="#383946" stroke-linecap="round" stroke-linejoin="round"/><path d="M7.778 15.583H.222c-.122 0-.222-.186-.222-.416 0-.23.1-.417.222-.417h7.556c.122 0 .222.187.222.417 0 .23-.1.416-.222.416zM3.778 11.416H.222c-.122 0-.222-.187-.222-.417 0-.23.1-.417.222-.417h3.556c.122 0 .222.187.222.417 0 .23-.1.417-.222.417zM2.786 6.833H.214C.096 6.833 0 6.647 0 6.417 0 6.187.096 6 .214 6h2.572c.118 0 .214.187.214.417 0 .23-.096.416-.214.416z" fill="#383946"/></svg>
